!!!COM: Robert Schumann
!!!CNT: Deutscher
!!!TXO: Deutsche 
!!!OTL: Seit ich ihn gesehen
!!!OPR: Frauenliebe und Leben
!!!OPS: Opus 42
!!!ONM: No. 1
!!!LYR: Chamisso
!!!ENC: Brian Bice
!!!YOR: Sa2mtliche Lieder, vol. 1, C.F. Peters
!!!ODT: 1840/
!!NB: Vocal melody and text only encoded.
**kern	**silbe
*clefG2	*
*k[b-e-]	*
*M3/4	*
=2	=2
{8f	{Seit
8f	ich
4.g	ihn
8f	ge-
=3	=3
8f	-se-
8f}	-hen,}
4r	.
{8b-	{glaub'
8g	ich
=4	=4
8.f	blind
16e-	zu
4e-}	sein;}
4r	.
=5	=5
{8g	{wo
8g	ich
4.a-	hin
8g	nur
=6	=6
8g	blik-
8g}	-ke,}
4r	.
{8cc	{seh'
8b-	ich
=7	=7
8.b-	ihn
16an	al-
4an}	-lein;}
{8an	{wie
8b-	im
=8	=8
(4.ee-	wa-
8dd	|
8cc)	|
8b-	-chen
=9	=9
4b-	Trau-
4a-}	-me}
{8.a-	{schwebt
16b-	sein
=10	=10
(4.ee-	Bild
8dd	|
8cc)	|
8bn	mir
=11	=11
(4bn	vor,
4cc)}	|}
{8dd	{taucht
8dd	aus
=12	=12
(4.dd	tief-
8e-	|
8cc)	|
8cc	-stem
=13	=13
4.cc	Dun-
8b-}	-kel}
{8b-	{hel-
8g	-ler,
=14	=14
8f	hel-
8b-	-ler
4.cc	nur
8b-	em-
=15	=15
2b-}	-por.}
4r	.
=18	=18
{8f	{Sonst
8f	ist
4.g	licht
8f	und
=19	=19
8f	farb-
8f}	-los}
{4.b-	{al-
8g	-les
=20	=20
8.f	um
16e-	mich
4e-}	her,}
4r	.
=21	=21
{8g	{nach
8g	der
4.a-	Schwe-
8g	-stern
=22	=22
8g	Spie-
8g}	-le}
4r	.
{8cc	{nicht
8b-	be-
=23	=23
8.b-	-gehr'
16an	ich
4an}	mehr,}
{8an	{mo2ch-
8b-	-te
=24	=24
(4.ee-	lie-
8dd	|
8cc)	|
8b-	-ber
=25	=25
4b-	wei-
4a-}	-nen,}
{8.a-	{still
16b-	im
=26	=26
(4.ee-	Ka2m-
8dd	|
8cc)	|
8bn	-mer-
=27	=27
(4bn	-lein;
4cc)}	|}
{8dd	{seit
8dd	ich
=28	=28
(4.dd	ihn
8e-	|
8cc)	|
8cc	ge-
=29	=29
4cc	-se-
4b-}	-hen,}
4r	.
=30	=30
{8f	{glaub'
8b-	ich
4.cc	blind
8b-	zu
=31	=31
2b-}	sein.}
4r	.
*-	*-
